projects/plugins/crm/i/external-link.svg

<svg height="24" viewBox="0 0 22 22" width="24" xmlns="http://www.w3.org/2000/svg"><path d="m18.2 17c0 .7-.6 1.2-1.2 1.2h-10c-.7 0-1.2-.6-1.2-1.2v-10c0-.7.6-1.2 1.2-1.2h3.2v-1.6h-3.2c-1.5 0-2.8 1.3-2.8 2.8v10c0 1.5 1.2 2.8 2.8 2.8h10c1.5 0 2.8-1.2 2.8-2.8v-3.6h-1.5v3.6zm-3.3-14v1.5h3.7l-6.4 6.4 1.1 1.1 6.4-6.4v3.7h1.5v-6.3z"/></svg>

<svg xmlns="http://www.w3.org/2000/svg" viewBox="0 0 22 22" width="24" height="24" aria-hidden="true" focusable="false">
	<path d="M18.2 17c0 .7-.6 1.2-1.2 1.2H7c-.7 0-1.2-.6-1.2-1.2V7c0-.7.6-1.2 1.2-1.2h3.2V4.2H7C5.5 4.2 4.2 5.5 4.2 7v10c0 1.5 1.2 2.8 2.8 2.8h10c1.5 0 2.8-1.2 2.8-2.8v-3.6h-1.5V17zM14.9 3v1.5h3.7l-6.4 6.4 1.1 1.1 6.4-6.4v3.7h1.5V3h-6.3z">
	</path>
</svg>
